!!!COM: Palestrina, Giovanni Perluigi da
!!!OPR: Missa De Beata Marie Virginis (III)
!!!OMD: Credo
!!!OTL: First Section
**kern	**kern	**kern	**kern	**kern
*Ibass	*Itenor	*Itenor	*Icalto	*Icant
!Bassus	!Tenor 2	!Tenor 1	!Altus	!Cantus
*clefF4	*clefGv2	*clefGv2	*clefG2	*clefG2
*k[]	*k[]	*k[]	*k[]	*k[]
*G:mix	*G:mix	*G:mix	*G:mix	*G:mix
*M4/2	*M4/2	*M4/2	*M4/2	*M4/2
=1	=1	=1	=1	=1
0r	0r	1g	0r	2r
.	.	.	.	2g
.	.	2g	.	2b
.	.	2e	.	2cc
=2	=2	=2	=2	=2
1G	2r	4d	0r	1dd
.	.	4c	.	.
.	2G	4B	.	.
.	.	4A	.	.
2G	2B	1G	.	2dd
2E	2c	.	.	2gg
=3	=3	=3	=3	=3
1.D	1d	2.A	0r	2.ff
.	.	4G	.	8ee
.	.	.	.	8dd
.	2d	4A	.	2ff
.	.	4B	.	.
2C	2g	2c	.	[2ee
=4	=4	=4	=4	=4
1D	2.f	2A	0r	4ee]
.	.	.	.	4dd
.	.	2a	.	1dd
.	8e	.	.	.
.	8d	.	.	.
1A	2f	2.a	.	.
.	[2e	.	.	2cc#
.	.	4g	.	.
=5	=5	=5	=5	=5
1B-	4e]	2f	1r	1dd
.	4d	.	.	.
.	1d	4e	.	.
.	.	4d	.	.
1A	.	1e	[1a	1r
.	2c#	.	.	.
=6	=6	=6	=6	=6
2r	1d	1.f	2a]	1r
1d	.	.	2d	.
.	1r	.	2a	[1dd
2G	.	2d	2g	.
=7	=7	=7	=7	=7
2d	0r	0r	2f	2dd]
2c	.	.	4e	2g
.	.	.	4f	.
2B	.	.	4g	2dd
.	.	.	4f	.
[2c	.	.	4e	2cc
.	.	.	4d	.
=8	=8	=8	=8	=8
2c]	1g	0r	2c	2ee
2B	.	.	2d	2.dd
1A	1c	.	2e	.
.	.	.	.	4cc
.	.	.	4d	[2cc
.	.	.	4c	.
=9	=9	=9	=9	=9
1G	1.g	2r	1d	2cc]
.	.	1d	.	2b
1r	.	.	1G	2b
.	2g	2G	.	[2dd
=10	=10	=10	=10	=10
0r	2f	2d	2r	2dd]
.	2e	2c	1g	2g
.	2d	2B	.	2dd
.	[2e	2A	2c	2cc
=11	=11	=11	=11	=11
0r	4e]	2G	2g	2b
.	4d	.	.	.
.	4c	4A	2e	1cc
.	4B	4B	.	.
.	2A	4c	2f#	.
.	.	4A	.	.
.	2B	2d	[2g	2b
=12	=12	=12	=12	=12
1r	2c	2r	2g]	1a
.	2d	1d	2f#	.
2r	2G	.	1g	1b
[2G	[2B	2e	.	.
=13	=13	=13	=13	=13
2G]	2B]	2d	2r	0r
2A	2c	2c	1e	.
2G	2B	4g	.	.
.	.	8f#	.	.
.	.	8g	.	.
2F	2A	[2a	2f	.
=14	=14	=14	=14	=14
1G	1B	4a]	2e	0r
.	.	4g	.	.
.	.	1g	2d	.
2C	1A	.	2e	.
[2c	.	2f#	4d	.
.	.	.	4c	.
=15	=15	=15	=15	=15
4c]	2G	1g	2d	1r
8B	.	.	.	.
8A	.	.	.	.
2B	2d	.	2d	.
2c	2e	1r	1g	2r
[2G	[2d	.	.	[2b
=16	=16	=16	=16	=16
2G]	2d]	0r	2r	2b]
2A	2c	.	1e	2cc
2G	2g	.	.	2b
2F	2a	.	2f	2a
=17	=17	=17	=17	=17
1G	1g	2r	2e	2.b
.	.	1B	2d	.
.	.	.	.	4a
2.E	2r	.	1e	1g
.	[2G	2c	.	.
4F	.	.	.	.
=18	=18	=18	=18	=18
2G	2G]	2B	2d	1.dd
2F#	2A	2A	2.d	.
[1G	4G	[1B	.	.
.	4A	.	4c	.
.	4B	.	4B	2dd
.	4c	.	4A	.
=19	=19	=19	=19	=19
2G]	2d	2B]	2G	2.b
4F	2d	4A	2.g	.
4E	.	4G	.	4cc
1D	2.d	2A	.	2dd
.	.	.	8f#	.
.	.	.	8e	.
.	.	2A	2f#	2a
.	4d	.	.	.
=20	=20	=20	=20	=20
[0G	[0d	[0G	[0g	[0b
=21	=21	=21	=21	=21
0G]	0d]	0G]	0g]	0b]
*-	*-	*-	*-	*-
!!!CDT: 1525/^1526/-1594/2/2
!!!OCY: Italia
!!!AGN: Mass (Paraphrase)
!!!AST: renaissance, vocal
!!!ASW: Gregorian Mass
!!!PWK: Masses, Book Mantuan I
!!!RNB: Cadence finals: D
!!!YOR: Le Opere Complete, v. 18, p. 162
!!!YOO: Rome, Italy: Fratelli Scalera
!!!END: 1992//
!!!EED: John Miller
!!!YEC: Copyright 2000, John Miller
!!!YEN: United States of America
!!!YEM: Rights to all derivative electronic formats reserved.
!!!YEM: Refer to licensing agreement for further details.
!!!YEM: This file must be accompanied by the licensing agreement.
!!!YEM: A copy of the licensing agreement may be found at http://www.music-cog.ohio-state.edu/HumdrumDatabases/Palestrina/license.txt
!!!EMD: converted to Humdrum by Bret Aarden
